X:1
T:Rose, vostre beau teint
T:Eustache du Caurroy
T:Rose, vostre beau teint
C:Eustache du Caurroy
%%score [ 1 2 3 4 ]
L:1/8
Q:1/4=84
M:4/4
K:C
V:1 treble nm="Dessus" snm="D"
V:2 alto2 nm="Haute-Contre" snm="HC"
V:3 alto nm="Taille" snm="T"
V:4 bass3 nm="Basse-Contre" snm="BC"
V:1
 x8 | x8 | z8 | d4 G4 | z2 c4 _B2 | A4 A2 A2- | A2 d2 d3 c | B2 A4 G2- | G2 ^F2 G4 | z4 z2 G2- | %10
w: |||Ro- se,|vo- stre|beau teint et|_ vos dou- *|* * ces|_ o- deurs,|Ro-|
 G2 D2 z4 | z8 | z2 e4 d2 | c2 B2 z2 d2 | d2 e3 d c2- | c2 BA G2 A2 | c4 d2 d2- | d2 cB A2 c2- | %18
w: * se,||vo- stre|beau teint et|vos dou- * *|* * * * ces|o- deurs, et|_ _ _ vos dou-|
 c_B A3 G/F/ G2 | A4 A4 | z4 z2 A2 | c6 B2 | z2 e2 d2 c2 | B2 e2 e3 d | c2 d2 f4 | e4 d2 g2- | %26
w: * * * * * ces|o- deurs,|Fi-|gu- rent,|Fi- gu- rent|à mes yeux _|_ les di-|vi- nes fa-|
 gfed cB c2 | B2 d2 e2 B2 | c2 d2 G4 | z2 d2 d2 B2- | B2 cd e4 | d2 d4 B2- | B2 c4 A2- | AB c4 d2 | %34
w: |veurs, Que le Ciel|li- be- ral,|Que le Ciel|_ li- * *|be- ral de-|* par- tit|_ _ à ma-|
 e4 d4 | z2 A2 _B4 | A4 z2 d2- | dc/B/ c2 GA _B2- | B2 A4 G2 | A4 z2 A2 | c4 A2 A2 | _B6 A2 | %42
w: da- me,|de- par-|tit à|_ _ _ _ ma- * *|* da- *|me: Pa-|reil- les en|beau- té,|
 z2 e2 f4 | e4 c4 | d4 e4 | z8 | z2 B2 d4 | c2 B2 e4 | d4 z2 d2 | B3 A G4- | G2 G2 A4 | B4 z4 | %52
w: pa- reil-|les en|cou- leurs,||Si Ju-|pi- ter fai-|soit un|Roy- * au-|* me des|fleurs,|
 z2 d4 G2- | G2 c3 B B2- | B2 A2 d4- | d4 d4 | z8 | z8 | z4 z2 D2 | d4 A2 c2- | cB e4 dc | %61
w: Vous re-|* gi- * *|* riez les|_ fleurs|||com-|me el- le fait|_ _ mon _ _|
 B2 G2 z2 d2- | d2 d2 B2 B2- | B2 e3 d c2 | B4 A4 | z2 c3 B AG | ^F2 G4 F2 | G8 |] %68
w: a- me, com-|* me el- le fait|_ mon _ _|a- me,|mon _ _ _|_ a- *|me.|
V:2
 x8 | x8 | z4 z2 G2- | G2 D2 z2 E2- | E2 C2 D3 E | F4 E2 E2 | ^F4 G2 D2 | z4 z2 D2- | D2 A,2 B,4 | %9
w: ||Ro-|* se, vo-|* stre beau _|_ teint et|vos dou- ces,|et|_ vos dou-|
 C2 D2 E4 | D2 G4 ^F2 | A2 G3 ^F F2 | G4 z2 G2- | G2 G2 ^F4 | G4 A2 A2 | G4 E2 F2- | F2 E2 z2 G2 | %17
w: ces o- deurs,|et vos _|dou- * ces o-|deurs, vo-|* stre beau|teint et vos|dou- ces o-|* deurs, et|
 F4 C2 C2 | z2 C2 D4 | F2 E3 D D2- | D2 ^C2 D4 | z2 E2 G4- | G2 E2 G4 | G2 A4 G2 | AGFE D2 A2- | %25
w: vos dou- ces,|et vos|dou- * * ces|_ o- deurs,|Fi- gu-|* rent à|mes yeux les|di- * * * * vi-|
 A2 G3 F/E/ D2 | EF G4 FE | G8 | z2 G2 D2 E2- | E2 B,2 A,2 G,2 | z2 G,2 G2 G2- | GG ^F2 z2 D2 | %32
w: * * * * nes|fa- * * * *|veurs,|Que le Ciel|_ li- be- ral,|le Ciel li-|* be- ral de-|
 G2 C2 F2 F2 | E2 E2 z2 A2 | G4 G2 G2- | G2 F2 D3 E | F3 G A4 | z4 z2 D2- | DE F4 ED | F2 E2 F4 | %40
w: par- tit à ma-|da- me, de-|par- tit à|_ ma- da- *|* * me,|à|_ _ _ _ _|* ma- da-|
 E2 C4 D2- | D2 G2 F2 F2- | F2 E2 z2 A2 | A4 G2 A2 | ^F2 G6 | z4 z2 B,2 | G4 ^F2 G2 | G6 G,2 | %48
w: me: Pa- reil-|* les en beau-|* té, pa-|reil- les en|cou- leurs,|Si|Ju- pi- ter|fai- soit|
 z2 G2 G2 ^F2 | G4 z2 E2 | D2 E3 D C2 | D4 E4 | D2 D2 GFED | E2 C2 G4 | E4 z2 G2- | G2 ^F2 G2 D2 | %56
w: un Roy- au-|me, un|Roy- au- * me|des fleurs,|Vous re- gi- * * *|* riez les|fleurs com-|* me el- le fait,|
 z8 | z8 | z2 D4 G2- | G2 D2 F2 F2 | E3 D C2 B,2 | D2 E3 F G2- | G^F/E/ F2 G2 D2 | EDCB, A,2 E2- | %64
w: ||com- me el-|* le fait mon|a- * * me,|fait mon _ a-|* * * * me, com-|me el- * * * le fait|
 E^F G4 FE | D2 E2 C4 | D8- | D8 |] %68
w: _ _ _ _ _|* mon a-|me.|_|
V:3
 x8 | x8 | D4 G,4 | z2 B,4 C2 | A,4 G,4 | z2 D4 ^C2 | D3 C B,3 A, | G,2 ^F,2 B,4 | A,2 D4 G,2 | %9
w: ||Ro- se,|vo- stre|beau teint|et vos|dou- * * *|* ces o-|deurs, Ro- se,|
 z2 G,3 G, C2- | C2 B,A, B,2 D2- | DC B,2 A,2 D2- | D2 C2 G,4 | G,4 A,2 A,2 | B,2 C4 A,2 | %15
w: vo- stre beau|_ _ _ _ teint|_ _ et vos dou-|* ces o-|deurs, et vos|dou- ces o-|
 E4 z2 D2 | A,2 C4 _B,2 | A,2 A,2 z2 F2 | E2 F3 E D2- | D2 C2 F4 | E4 A,2 F2- | F2 E2 E2 DC | %22
w: deurs, et|vos dou- ces|o- deurs, et|vos dou- * *|* ces o-|deurs, Fi- gu-|* rent à _ _|
 B,2 C2 B,2 E2- | ED C2 B,2 C2 | z2 A,2 A,4 | C4 B,4 | C3 B, A,G, A,2 | G,2 B,2 C2 E2- | %28
w: _ mes yeux, à|_ _ _ mes yeux|les di-|vi- nes|fa- * * * *|veurs, Que le Ciel|
 E2 B,4 C2 | G4 ^F2 G2 | GFED C4 | B,2 A,2 B,4 | z2 E4 D2- | D2 C2 A,3 B, | CB, C4 _B,2 | %35
w: _ li- be-|ral, Que le|Ciel _ _ _ _|li- be- ral|de- par-|* tit à _|_ _ _ ma-|
 A,4 G,2 D2 | D3 E F4 | E2 E3 F G2- | G2 FE D2 D2- | D2 ^C2 D4 | z2 E2 F4 | D4 z2 D2 | C4 D2 A,2 | %43
w: da- me, de-|par- * *|tit à _ _|_ _ _ _ ma-|* da- me:|Pa- reil-|les en|beau- té, pa-|
 C2 C2 z2 C2- | C2 B,2 C4 | z2 B,2 D4 | B,2 G,2 A,2 B,2 | z2 G,2 G,2 C2- | C2 B,2 B,2 A,2 | %49
w: reil- les en|_ cou- leurs,|Si Ju-|pi- ter fai- soit|un Roy- au-|* me des fleurs,|
 z2 E3 D C2 | B,2 C3 B, A,2 | G,4 z2 C2- | C2 B,2 D2 C2 | z2 E4 E2 | C4 B,4 | A,4 B,4 | G,4 D4 | %57
w: un _ _|Roy- au- me des|fleurs, Vous|_ re- gi- riez,|Vous re-|gi- riez|les fleurs|com- me el-|
 A,2 C2 B,4 | A,4 B,4 | z8 | z2 C2 G4 | G,2 C4 B,2 | A,4 G,4 | z8 | z2 G,2 D3 C | B,2 G,2 A,4- | %66
w: le fait mon|a- me,||com- me el-|le fait mon|a- me,||com- me el- *|* le fait|
 A,2 B,2 A,4 | G,8 |] %68
w: _ mon a-|me.|
V:4
 x8 | x8 | z8 | z8 | z8 | z8 | z8 | D8 | D,4 z2 E,2- | E,2 B,,2 C,4 | G,4 z4 | z4 D,4 | %12
w: |||||||Ro-|se, vo-|* stre beau|teint|et|
 B,,2 C,4 B,,2 | E,4 D,4 | z8 | z8 | z4 G,4 | D,2 F,3 G, A,2- | A,2 A,2 _B,4 | A,4 z2 D,2 | %20
w: vos dou- ces|o- deurs,|||et|vos dou- * *|* ces o-|deurs, Fi-|
 A,4 F,2 D,2 | A,4 G,4 | z8 | z4 E,4 | F,2 D,3 E, F,G, | A,2 E,2 G,4 | C,4 z4 | z8 | z8 | %29
w: gu- rent à|mes yeux||les|di- vi- * * *|* nes fa-|veurs,|||
 z2 G,2 D,2 E,2- | E,2 C,3 D, E,F, | G,2 D,2 G,4 | E,2 A,4 D,2 | A,3 G, F,2 F,2 | E,2 D,C, G,4 | %35
w: Que le Ciel|_ li- * * *|* be- ral|de- par- tit|à _ _ ma-|da- * * *|
 D,2 D,2 G,4 | F,2 D,3 E, F,G, | A,3 B, C2 G,2 | D3 C _B,4 | A,4 z2 D,2 | A,3 G, F,E, D,2 | %41
w: me, de- par-|tit à _ _ _|_ _ _ ma-|da- * *|me: Pa-|reil- * * * *|
 G,2 G,2 D4 | A,4 z2 D,2 | A,4 E,2 F,2 | D,2 G,2 z2 C,2 | G,4 ^F,2 G,2- | G,F, E,2 D,2 G,2 | %47
w: les en beau-|té, pa-|reil- les en|cou- leurs, Si|Ju- pi- ter|_ _ fai- soit un|
 E,3 D, C,4 | G,2 G,2 D,4 | z8 | z8 | z2 G,4 C,2 | G,3 A, B,2 C2- | CB, A,2 E,4 | A,4 z4 | %55
w: Roy- * au-|me des fleurs,|||Vous re-|gi- * * riez|_ _ _ les|fleurs|
 D,4 G,3 F, | E,D, C,2 B,,2 D,2- | D,2 E,3 F, G,2- | G,2 ^F,2 G,4 | z8 | z8 | z2 C,2 G,4 | D,4 z4 | %63
w: com- me el- *|* * * le fait|_ mon _ a-|* * me,|||com- me el-|le,|
 z8 | z4 z2 D,2 | G,2 C,2 F,3 E, | D,2 G,2 D,4 | G,,8 |] %68
w: |com-|me el- le fait _|_ mon a-|me.|

